X:1
T:Title
%%score { 1 | 2 }
L:1/8
Q:1/4=94
M:4/4
K:Bb
V:1 treble nm="Grand Piano"
V:2 bass 
V:1
 [Fd]3 [Fd] [Ge]2 [Fd]2 | dcc=B c4 | c3 c d2 cc | [Dc][DB][DB][EG] [DF]3 [DF] | %4
w: J.~Edwin~McConnell * * *||||
 [Fd][Fd][Ge][Fd] c G2 G | ccdc [DB] [DF]2 [DF] | %6
w: ||
[M:19/16] [EG][FA][GB][Gc][Fd][Ff]/-[Ff]/-[Ff]/-[Ff]/-[Ff]/-[Ff]-<[Ff] | %7
w: |
[M:4/4] [Fd]2 [Ec]2 [DB]4[Q:1/4=93][Q:1/4=91][Q:1/4=90][Q:1/4=88][Q:1/4=87][Q:1/4=85][Q:1/4=84][Q:1/4=82][Q:1/4=81][Q:1/4=79][Q:1/4=78][Q:1/4=76][Q:1/4=75][Q:1/4=73][Q:1/4=72] |] %8
w: |
V:2
 [B,,B,]3 [B,,B,] [B,,B,]2 [B,,B,]2 | [F,B,F][F,A,E][F,A,E][F,_A,D] [F,=A,E]4 | %2
 [F,A,E]3 [F,A,E] [F,A,F]2 [F,A,E][F,A,E] | [B,,B,][B,,B,][B,,B,][B,,B,] [B,,B,]3 [B,,B,] | %4
 [B,,B,][B,,B,][B,,B,][B,,B,] [E,G,E] [E,CE]2 [E,B,E] | %5
 [F,A,E][F,A,E][F,A,F][F,A,E] [B,,B,] [B,,B,]2 [B,,B,] | %6
[M:19/16] [E,B,][E,B,][E,B,][E,B,][F,B,][D,B,]/-[D,B,]/-[D,B,]/-[D,B,]/-[D,B,]/-[D,B,]-<[D,B,] | %7
[M:4/4] [F,B,]2 [F,A,]2 [B,,B,]4 |] %8

